svg/教育1.svg

<svg width="36" height="36" viewBox="0 0 36 36" fill="none" xmlns="http://www.w3.org/2000/svg"><rect x="-90.3" y="-9.8" width="216.6" height="87.6" rx="11.8" stroke="#DDDDDD" stroke-width="0.4"/><g opacity="0.8"><path d="M19.4574 8.13225L33.2454 15.6563C33.3894 15.7403 33.5094 15.8483 33.5934 15.9923C33.6774 16.1363 33.7254 16.2923 33.7254 16.4603C33.7254 16.6283 33.6774 16.7843 33.5934 16.9283C33.5094 17.0723 33.3894 17.1803 33.2454 17.2643L19.4574 24.7883C19.0134 25.0283 18.5094 25.1603 18.0054 25.1603C17.5014 25.1603 16.9974 25.0283 16.5534 24.7883L2.75344 17.2643C2.60944 17.1803 2.48944 17.0723 2.40544 16.9283C2.32144 16.7843 2.27344 16.6283 2.27344 16.4603C2.27344 16.2923 2.32144 16.1363 2.40544 15.9923C2.48944 15.8483 2.60944 15.7403 2.75344 15.6563L16.5414 8.13225C16.9854 7.89225 17.4894 7.76025 17.9934 7.76025C18.4974 7.76025 19.0014 7.89225 19.4454 8.13225H19.4574Z" fill="#292D32"/><path d="M6.45502 21.099C6.55102 21.099 6.65902 21.123 6.74302 21.171L8.93902 22.383V27.939C8.93902 28.035 8.96302 28.131 9.01102 28.215C9.05902 28.299 9.11902 28.371 9.20302 28.431C9.28702 28.491 9.37102 28.527 9.46702 28.539C9.56302 28.551 9.65902 28.539 9.75502 28.515L10.655 28.203C10.775 28.155 10.919 28.203 11.003 28.311L12.383 30.159C12.455 30.267 12.563 30.339 12.683 30.375C12.803 30.411 12.935 30.411 13.055 30.375C13.175 30.339 13.283 30.255 13.355 30.159C13.427 30.051 13.475 29.931 13.475 29.799V24.903L16.535 26.595C17.447 27.099 18.563 27.099 19.487 26.595L29.255 21.171C29.351 21.123 29.447 21.087 29.555 21.099C29.663 21.099 29.759 21.135 29.855 21.183C29.951 21.231 30.023 21.315 30.071 21.411C30.119 21.507 30.155 21.603 30.155 21.711V27.999C30.155 29.115 29.543 30.135 28.571 30.663L19.451 35.631C18.539 36.123 17.447 36.123 16.547 35.631L7.42702 30.663C6.94702 30.399 6.55102 30.015 6.26302 29.547C5.98702 29.079 5.84302 28.539 5.84302 27.999V21.711C5.84302 21.375 6.11902 21.099 6.45502 21.099Z" fill="#8D8F91"/><path d="M12 0.120117H24C30.5611 0.120117 35.8799 5.43886 35.8799 12V24C35.8799 30.5611 30.5611 35.8799 24 35.8799H12C5.43886 35.8799 0.120117 30.5611 0.120117 24V12C0.120117 5.43886 5.43886 0.120117 12 0.120117Z" stroke="#D1D5DA" stroke-width="0.24"/></g><defs><clipPath id="clip0_1970_14250"></clipPath></defs></svg>

<svg fill="none" viewBox="0 0 36 36"><rect width="216.6" height="87.6" x="-90.3" y="-9.8" stroke="#DDDDDD" stroke-width=".4" rx="11.8"/><g opacity=".8"><path fill="#292D32" d="m19.457 8.132 13.788 7.524a.94.94 0 0 1 .48.804.935.935 0 0 1-.48.804l-13.788 7.524c-.444.24-.948.372-1.452.372a3.1 3.1 0 0 1-1.452-.372l-13.8-7.524a.94.94 0 0 1-.48-.804.935.935 0 0 1 .48-.804l13.788-7.524c.444-.24.948-.372 1.452-.372s1.008.132 1.452.372z"/><path fill="#8D8F91" d="M6.455 21.099c.096 0 .204.024.288.072l2.196 1.212v5.556c0 .096.024.192.072.276a.7.7 0 0 0 .192.216c.084.06.168.096.264.108s.192 0 .288-.024l.9-.312c.12-.048.264 0 .348.108l1.38 1.848c.072.108.18.18.3.216s.252.036.372 0a.61.61 0 0 0 .42-.576v-4.896l3.06 1.692a3.07 3.07 0 0 0 2.952 0l9.768-5.424a.53.53 0 0 1 .3-.072c.108 0 .204.036.3.084a.5.5 0 0 1 .216.228.66.66 0 0 1 .084.3v6.288a3.03 3.03 0 0 1-1.584 2.664l-9.12 4.968a3.04 3.04 0 0 1-2.904 0l-9.12-4.968a3.15 3.15 0 0 1-1.164-1.116 3.06 3.06 0 0 1-.42-1.548v-6.288c0-.336.276-.612.612-.612"/><path stroke="#D1D5DA" stroke-width=".24" d="M12 .12h12C30.561.12 35.88 5.44 35.88 12v12c0 6.561-5.319 11.88-11.88 11.88H12C5.439 35.88.12 30.56.12 24V12C.12 5.439 5.44.12 12 .12Z"/></g></svg>
